icons/svg/topo/topo_hindu.svg

<?xml version="1.0" encoding="UTF-8" standalone="no"?>
<!-- Created with Inkscape (http://www.inkscape.org/) -->

<svg
   xmlns:dc="http://purl.org/dc/elements/1.1/"
   xmlns:cc="http://creativecommons.org/ns#"
   xmlns:rdf="http://www.w3.org/1999/02/22-rdf-syntax-ns#"
   xmlns:svg="http://www.w3.org/2000/svg"
   xmlns="http://www.w3.org/2000/svg"
   xmlns:sodipodi="http://sodipodi.sourceforge.net/DTD/sodipodi-0.dtd"
   xmlns:inkscape="http://www.inkscape.org/namespaces/inkscape"
   version="1.0"
   width="580"
   height="580"
   id="svg2"
   sodipodi:version="0.32"
   inkscape:version="0.91 r"
   sodipodi:docname="topo_hindu.svg"
   inkscape:output_extension="org.inkscape.output.svg.inkscape">
  <metadata
     id="metadata2975">
    <rdf:RDF>
      <cc:Work
         rdf:about="">
        <dc:format>image/svg+xml</dc:format>
        <dc:type
           rdf:resource="http://purl.org/dc/dcmitype/StillImage" />
        <cc:license
           rdf:resource="http://web.resource.org/cc/PublicDomain" />
        <dc:language>en</dc:language>
      </cc:Work>
    </rdf:RDF>
  </metadata>
  <sodipodi:namedview
     inkscape:window-height="1051"
     inkscape:window-width="1920"
     inkscape:pageshadow="2"
     inkscape:pageopacity="0.0"
     guidetolerance="10.0"
     gridtolerance="10.0"
     objecttolerance="10.0"
     borderopacity="1.0"
     bordercolor="#666666"
     pagecolor="#ffffff"
     id="base"
     inkscape:zoom="0.65172414"
     inkscape:cx="28.738602"
     inkscape:cy="253.42688"
     inkscape:window-x="0"
     inkscape:window-y="0"
     inkscape:current-layer="svg2"
     showgrid="false"
     inkscape:window-maximized="1" />
  <defs
     id="defs4">
    <inkscape:perspective
       sodipodi:type="inkscape:persp3d"
       inkscape:vp_x="0 : 290 : 1"
       inkscape:vp_y="0 : 1000 : 0"
       inkscape:vp_z="580 : 290 : 1"
       inkscape:persp3d-origin="290 : 193.33333 : 1"
       id="perspective2441" />
    <inkscape:perspective
       id="perspective2466"
       inkscape:persp3d-origin="372.04724 : 350.78739 : 1"
       inkscape:vp_z="744.09448 : 526.18109 : 1"
       inkscape:vp_y="0 : 1000 : 0"
       inkscape:vp_x="0 : 526.18109 : 1"
       sodipodi:type="inkscape:persp3d" />
    <inkscape:perspective
       id="perspective3333"
       inkscape:persp3d-origin="372.04724 : 350.78739 : 1"
       inkscape:vp_z="744.09448 : 526.18109 : 1"
       inkscape:vp_y="0 : 1000 : 0"
       inkscape:vp_x="0 : 526.18109 : 1"
       sodipodi:type="inkscape:persp3d" />
    <inkscape:perspective
       id="perspective3401"
       inkscape:persp3d-origin="372.04724 : 350.78739 : 1"
       inkscape:vp_z="744.09448 : 526.18109 : 1"
       inkscape:vp_y="0 : 1000 : 0"
       inkscape:vp_x="0 : 526.18109 : 1"
       sodipodi:type="inkscape:persp3d" />
    <inkscape:perspective
       id="perspective3464"
       inkscape:persp3d-origin="372.04724 : 350.78739 : 1"
       inkscape:vp_z="744.09448 : 526.18109 : 1"
       inkscape:vp_y="0 : 1000 : 0"
       inkscape:vp_x="0 : 526.18109 : 1"
       sodipodi:type="inkscape:persp3d" />
    <inkscape:perspective
       id="perspective3581"
       inkscape:persp3d-origin="225 : 150 : 1"
       inkscape:vp_z="450 : 225 : 1"
       inkscape:vp_y="0 : 1000 : 0"
       inkscape:vp_x="0 : 225 : 1"
       sodipodi:type="inkscape:persp3d" />
    <inkscape:perspective
       id="perspective4312"
       inkscape:persp3d-origin="225 : 150 : 1"
       inkscape:vp_z="450 : 225 : 1"
       inkscape:vp_y="0 : 1000 : 0"
       inkscape:vp_x="0 : 225 : 1"
       sodipodi:type="inkscape:persp3d" />
  </defs>
  <g
     id="g1327">
    <path
       d="M 66.275,1.768 C 24.94,1.768 1.704,23.139 1.704,66.804 L 1.704,516.927 C 1.704,557.771 22.599,579.156 63.896,579.156 L 515.92,579.156 C 557.227,579.156 578.149,558.841 578.149,516.927 L 578.149,66.804 C 578.149,24.203 557.227,1.768 514.628,1.768 C 514.624,1.768 66.133,1.625 66.275,1.768 z "
       style="fill:#111;stroke:#eee;stroke-width:3.40799999"
       id="path1329" />
  </g>
  <path
     style="opacity:1;fill:#ffffff"
     d="M 210.98946,527.07704 C 182.72879,519.70233 158.29841,504.93909 135.32568,481.35349 98.733844,443.78544 78.747851,403.5799 66.91289,343.72828 c -6.750186,-34.13697 -6.761658,-34.96783 -0.545389,-39.51331 12.734107,-9.3114 17.767263,-5.95584 22.03898,14.69323 22.262229,107.6131 92.002219,177.57037 159.846099,160.34412 20.23392,-5.13761 39.53732,-24.56238 45.34419,-45.62932 7.48741,-27.16394 -5.703,-74.10443 -28.63142,-101.89019 l -8.1483,-9.87448 -13.77395,14.1931 c -14.56619,15.00947 -32.51732,27.38082 -39.76066,27.40176 -4.35528,0.0126 -24.23993,-40.20684 -24.23993,-49.02854 0,-2.58349 9.45798,-9.02129 21.01773,-14.30615 32.44022,-14.83096 46.23897,-31.53585 46.23897,-55.97725 0,-15.9062 -2.80411,-21.4529 -13.69185,-27.08318 -14.01928,-7.24965 -37.3623,-6.00978 -65.65336,3.48722 -13.77433,4.62393 -25.83232,8.40711 -26.79551,8.40711 -2.47919,0 -21.64699,-43.37771 -21.64699,-48.98822 0,-9.62487 20.78858,-16.20302 55.48678,-17.55773 31.82394,-1.24249 34.61743,-0.79288 52.06244,8.37965 21.92444,11.52781 38.22415,31.48768 45.37352,55.56223 5.83106,19.63525 6.67026,45.19594 1.89614,57.75282 -5.08459,13.37342 1.38208,13.47734 18.6458,0.29963 18.86294,-14.39838 31.62243,-20.04096 52.34581,-23.14863 14.94255,-2.24076 15.67985,-2.89272 19.76253,-17.47467 9.74473,-34.80469 35.55557,-55.34936 70.15316,-55.83993 25.82705,-0.36621 40.34709,4.94397 55.24963,20.20556 19.67323,20.1472 26.71895,44.46827 28.43514,98.15447 2.13023,66.63873 -6.81941,102.65727 -32.88363,132.34283 -22.46667,25.5881 -57.8081,35.04546 -85.38197,22.84824 -23.27035,-10.29358 -29.40871,-26.26588 -32.07964,-83.47221 -1.71577,-36.74881 -3.14555,-45.48928 -8.389,-51.2832 -8.11337,-8.96521 -13.09625,-8.75839 -35.03419,1.45427 l -17.98593,8.37293 7.21758,10.93055 c 46.8893,71.01055 37.17976,148.33435 -21.90837,174.47184 -18.60843,8.23137 -58.76467,10.78293 -80.48784,5.11421 z m 243.0343,-119.89985 c 24.24335,-14.78122 40.29674,-56.32884 36.77427,-95.17514 -2.30239,-25.39141 -17.08395,-55.32114 -32.29685,-65.39478 -20.59574,-13.63804 -48.88637,-9.14865 -67.43086,10.70044 l -8.23779,8.81735 6.46353,10.83846 c 5.37826,9.01857 6.64281,18.74366 7.53111,57.91816 1.24727,55.00442 1.75961,58.25073 11.05908,70.07312 8.86437,11.26921 29.65673,12.27074 46.13751,2.22239 z M 286.67134,179.62632 c -8.31304,-2.90843 -21.41921,-9.62574 -29.12475,-14.92732 -15.38593,-10.58577 -44.87573,-42.65294 -44.87573,-48.79775 0,-2.131 3.87379,-6.41273 8.6084,-9.51498 8.42667,-5.52137 8.89596,-5.38066 22.22981,6.66568 17.66954,15.96337 33.95393,22.61538 55.48029,22.66326 19.28713,0.0429 42.51453,-11.13557 54.31784,-26.14107 3.63821,-4.62521 7.74725,-8.40944 9.13124,-8.40944 2.6769,0 38.45458,29.43763 42.82331,35.23473 4.21158,5.58856 -30.67266,34.71364 -50.43318,42.10703 -21.37056,7.99573 -47.2874,8.42156 -68.15723,1.11986 z m 1.18258,-75.20849 c -8.98342,-9.459413 -16.75529,-18.353162 -17.27085,-19.763909 -0.51559,-1.410736 6.81078,-9.812546 16.28083,-18.670657 l 17.21825,-16.105654 17.90968,17.687231 c 9.85034,9.727971 17.09881,19.375985 16.10767,21.439987 -0.9911,2.064036 -9.02678,10.246079 -17.85705,18.182372 l -16.05505,14.42954 -16.33348,-17.19891 z"
     id="path3603"
     sodipodi:nodetypes="csssssscccsssssssssssssssssssssscccsccsscccssccsssssssssccscccsccc"
     inkscape:connector-curvature="0" />
</svg>

<svg width="580" height="580" viewBox="0 0 580 580" fill="none" xmlns="http://www.w3.org/2000/svg">
<g clip-path="url(#clip0)">
<path d="M66.2751 1.76815C24.9401 1.76815 1.7041 23.1391 1.7041 66.8041V516.927C1.7041 557.771 22.5991 579.156 63.8961 579.156H515.92C557.227 579.156 578.149 558.841 578.149 516.927V66.8041C578.149 24.2031 557.227 1.76815 514.628 1.76815C514.624 1.76815 66.1331 1.62515 66.2751 1.76815Z" fill="#111111" stroke="#EEEEEE" stroke-width="3.408"/>
<path d="M210.99 527.077C182.729 519.702 158.299 504.939 135.326 481.353C98.734 443.785 78.748 403.58 66.913 343.728C60.1628 309.591 60.1513 308.76 66.3676 304.215C79.1017 294.903 84.1349 298.259 88.4066 318.908C110.669 426.521 180.409 496.478 248.253 479.252C268.487 474.115 287.79 454.69 293.597 433.623C301.084 406.459 287.894 359.518 264.965 331.733L256.817 321.858L243.043 336.051C228.477 351.061 210.526 363.432 203.283 363.453C198.927 363.466 179.043 323.246 179.043 314.424C179.043 311.841 188.501 305.403 200.06 300.118C232.501 285.287 246.299 268.582 246.299 244.141C246.299 228.235 243.495 222.688 232.607 217.058C218.588 209.808 195.245 211.048 166.954 220.545C153.18 225.169 141.122 228.952 140.159 228.952C137.679 228.952 118.512 185.575 118.512 179.964C118.512 170.339 139.3 163.761 173.998 162.406C205.822 161.164 208.616 161.613 226.061 170.786C247.985 182.314 264.285 202.274 271.434 226.348C277.265 245.983 278.105 271.544 273.33 284.101C268.246 297.474 274.713 297.578 291.976 284.401C310.839 270.002 323.599 264.36 344.322 261.252C359.265 259.011 360.002 258.359 364.085 243.777C373.829 208.973 399.64 188.428 434.238 187.937C460.065 187.571 474.585 192.881 489.487 208.143C509.161 228.29 516.206 252.611 517.923 306.297C520.053 372.936 511.103 408.955 485.039 438.64C462.572 464.228 427.231 473.686 399.657 461.488C376.387 451.195 370.248 435.223 367.577 378.016C365.862 341.267 364.432 332.527 359.188 326.733C351.075 317.768 346.092 317.975 324.154 328.187L306.168 336.56L313.386 347.491C360.275 418.501 350.566 495.825 291.477 521.963C272.869 530.194 232.713 532.746 210.99 527.077V527.077ZM454.024 407.177C478.267 392.396 494.321 350.848 490.798 312.002C488.496 286.61 473.714 256.681 458.501 246.607C437.906 232.969 409.615 237.458 391.07 257.308L382.833 266.125L389.296 276.963C394.674 285.982 395.939 295.707 396.827 334.882C398.075 389.886 398.587 393.132 407.886 404.955C416.751 416.224 437.543 417.225 454.024 407.177ZM286.671 179.626C278.358 176.718 265.252 170 257.547 164.699C242.161 154.113 212.671 122.046 212.671 115.901C212.671 113.77 216.545 109.488 221.279 106.386C229.706 100.865 230.175 101.005 243.509 113.052C261.179 129.015 277.463 135.667 298.989 135.715C318.277 135.758 341.504 124.579 353.307 109.574C356.945 104.949 361.055 101.165 362.439 101.165C365.115 101.165 400.893 130.602 405.262 136.399C409.473 141.988 374.589 171.113 354.829 178.506C333.458 186.502 307.541 186.928 286.671 179.626V179.626ZM287.854 104.418C278.871 94.9583 271.099 86.0645 270.583 84.6538C270.068 83.243 277.394 74.8412 286.864 65.9831L304.082 49.8774L321.992 67.5647C331.842 77.2926 339.091 86.9407 338.1 89.0047C337.108 91.0687 329.073 99.2507 320.243 107.187L304.188 121.617L287.854 104.418V104.418Z" fill="white"/>
</g>
<defs>
<clipPath id="clip0">
<path d="M0 0H580V580H0V0Z" fill="white"/>
</clipPath>
</defs>
</svg>
